X:46
T:Minuet in F
C:J. S. Bach
N:(from the Anna Magdalena Bach Book) TablEdited by Dion Morris
L:1/8
Q:1/4=120
M:3/4
K:F
A2 fe d^c | d2 A2 B2 | _DE GB AG | F2 EF D2 | F2 BA dc | f2 ed cB | AB/c/ F2 E2 | 
F6 | A2 fe d^c | d2 A2 B2 | ^CE GB AG | F2 EF D2 | F2 BA dc | z/f3/2 z/edcB/ | 
z/AB/ c/F3/2 z/E3/2 | F6 | a2 Fa gf | e/f/g c4 | e2 Df ed | ^c/d/e A4 | A=B ^cd ef | 
ge ^cb ag | f/e/d e2 ^c2 | d6 | a2 Fa gf | e/f/g c4 | f2 Df ed | ^c/d/e A4 | A=B ^cd ef | 
ge ^cb ag | f/e/d e2 ^c2 | [d6D6] | 
 

